X:1
T:Title
%%score { 1 | 2 }
L:1/8
M:6/4
K:G
V:1 treble nm="Grand Piano"
V:2 treble 
V:1
 z6 z4[Q:1/4=100] B2 | B4 AG F4 A2 | A6 G4 G2 | c4 BA G4 B2 |[M:5/4] A2- A2- A6 |[M:1/4] c2 | %6
[M:6/4] B4 BA G4 G2 | F6 E4 c2 | c4 BA F4 A2 |[M:5/4] G2- G2- G6 |[M:6/8] d [Fd]2 [FA][FA][GB] | %11
 [Ac] B2 A G2 | G [EG]2 [CE][EG][DF] |[M:5/8] EDG B[FA]- |[M:1/8] [FA] | [FA] |[M:3/4] B2 B c2 c | %17
 d2 d [Ee]3 | GF E D2 [DGB] | [DFB]2 [CFA] [B,DG]3 |] %20
V:2
 z6 z4 D2 | D4 CB, A,4 C2 | C6 B,4 B,2 | E4 DC B,4 D2 |[M:5/4] C2- C2- C6 |[M:1/4] E2 | %6
[M:6/4] D4 DC B,4 E2 | D6 C4 E2 | E4 DC[K:bass] A,4 C2 |[M:5/4] B,2- B,2- B,6 | %10
[M:6/8] [G,B,G] [D,A,]2 [D,D][D,D][D,D] | [D,D][K:treble] [G,DG]2 [G,CD][K:bass] [G,B,D]2 | %12
 [G,B,^D] [C,C]2 [C,G,][C,C][C,G,] |[M:5/8] [C,G,C][G,B,][K:treble][G,B,D] [G,DG][K:bass][D,D]- | %14
[M:1/8] [D,D] | [D,D] |[M:3/4][K:treble] [G,DG]2 [G,DG] [A,DF]2 [A,DF] | %17
 [G,B,=F]2 [G,B,F][K:bass] [C,G,]3 | G,F, E, D,2 D, | D,2 D, G,,3 |] %20

